!!!!SEGMENT: pl-wn--sd-xvi-qu-273--003_gomolka-mikolaj--mocny-boze-jakoz-ich-wiele-powstalo.krn
!!!cenid: 15xx:208
!!!COM: Gomółka, Mikołaj
!!!COM-rismid: pe30013343
!!!CDT: ~1535->1591/04/30
!!!CNT: Polish
!!!GTL: Melodiae na psalterz polski
!!!OTL: III. Mocny Boże, jakoż ich wiele powstało,
!!!PDT: 1580
!!!AGN: Sacred
!!!SMS-siglum: PL-Wn
!!!SMS-shelfmark: SD XVI.Qu.273
!!!SMS-shelfwork: 003 G
!!!NIFC-rismid:
!!!ONB-nifc: Melodiae na psalterz polski
**kern	**text	**kern	**text	**kern	**text	**kern	**text
*part4	*part4	*part3	*part3	*part2	*part2	*part1	*part1
*staff4	*staff4	*staff3	*staff3	*staff2	*staff2	*staff1	*staff1
*clefF4	*	*clefC3	*	*clefC3	*	*clefC1	*
*k[]	*	*k[]	*	*k[]	*	*k[]	*
*d:	*	*d:	*	*d:	*	*d:	*
*M4/2	*	*M4/2	*	*M4/2	*	*M4/2	*
*met(C|)	*	*met(C|)	*	*met(C|)	*	*met(C|)	*
*xywh-3v:900,5470,5189,1267	*	*xywh-3v:888,4203,5226,1279	*	*xywh-3v:851,2899,5165,1315	*	*xywh-3v:863,1279,5116,1681	*
=1-	=1-	=1-	=1-	=1-	=1-	=1-	=1-
0AA	Moc-	0A	Moc-	0c#X	Moc-	0e	Moc-
=2-	=2-	=2-	=2-	=2-	=2-	=2-	=2-
1D	-ny	1A	-ny	1d	-ny	1f	-ny
1D	Bo-	1A	Bo-	1d	Bo-	1f	Bo-
=3-	=3-	=3-	=3-	=3-	=3-	=3-	=3-
!	!LO:"z z."	!	!LO:"z z ."	!	!LO:"z z ."	!	!LO:"z z."
2E	-ᴣe,	2G#X	-e,	2B	-ᴣe,	2e	-ᴣe,
2AA	ià-	2A	ià-	2e	ià-	2a	ià-
!	!LO:"z z."	!	!LO:"z z ."	!	!LO:"z z ."	!	!LO:"z z."
2E	-ťóᴣ	2B	-ťóᴣ	2e	-ťóᴣ	2g/	-ťóᴣ
2AA	ich	2c	ich	2e	ich	2a	ich
=4-	=4-	=4-	=4-	=4-	=4-	=4-	=4-
1D	wie-	2.d	wie-	4f	wie-	1f	wie-
.	.	.	.	4g	.	.	.
.	.	.	.	1a	-lé	.	.
.	.	4c/	.	.	.	.	.
2E	-lé	2B	-lé	.	.	2e	-lé
2E	powʃ-	2B	powʃ-	2g#X	powʃ-	1e	powʃ-
=5-	=5-	=5-	=5-	=5-	=5-	=5-	=5-
1F	-tà -	1A	-tà-	1a	-tà-	.	.
.	.	.	.	.	.	2d	-tà -
2E	-ło,	2B	-ło,	2g#X	-ło,	2e	-ło,
2E	Ja-	2.e	Ja-	2g#	Ja-	2b	Ja-
=6-	=6-	=6-	=6-	=6-	=6-	=6-	=6-
!	!LO:"z z."	!	!	!	!	!	!LO:"z z."
1.A	-ťóӡ	.	.	2a	.	1.cc	-ťóӡ
.	.	4d	.	.	.	.	.
!	!	!	!LO:"z z ."	!	!LO:"z z."	!	!
.	.	4c	-ťóӡ	2e	-ťóӡ	.	.
.	.	4B	.	.	.	.	.
.	.	2A	.	2e	ʃye	.	.
2G#X	ʃye	2B	ʃye	1e	ich	2b	ʃye
=7-	=7-	=7-	=7-	=7-	=7-	=7-	=7-
2A	ich	2c/	ich	.	.	2a	ich
2F	prze-	2A	prze-	2d	prze-	2a	prze-
2E	-ćiw	2B	-ćiw	2e	-ćiw	2g	-ćiw
2BB	mnie	2B	mnie	2f#X	mnie	2dd	mnie
=8-	=8-	=8-	=8-	=8-	=8-	=8-	=8-
2C	si-	2e	si-	4e	si-	2cc	si-
.	.	.	.	4f	.	.	.
2GG	.	2d	.	2g	.	2.b	.
2AA	-łá	2c/	-łá	2e	-łá	.	.
.	.	.	.	.	.	4a	-łá
2D/	zeb-	4d	zeb-	2f	zeb-	1a	zeb-
.	.	4c	.	.	.	.	.
=9-	=9-	=9-	=9-	=9-	=9-	=9-	=9-
1E	-rá-	4B	-rá-	2.e	-rá-	.	.
.	.	4A	.	.	.	.	.
.	.	2B	.	.	.	2g/	-rá-
.	.	.	.	4d	.	.	.
!!LO:PB:g=original
*xywh-4r:745,5346,5020,1384	*	*xywh-4r:745,4057,5093,1372	*	*xywh-4r:721,2793,5045,1312	*	*xywh-4r:769,1228,5057,1625	*
2AA	-ło:	2A	-ło:	2c/	-ło:	2a	-ło!
2A	A	2e	A	2c/	A	2cc	A
=10-	=10-	=10-	=10-	=10-	=10-	=10-	=10-
2F	tym	2f	tym	2A	tym	2cc	tym
2G	ʃer-	2d	ʃer-	2B	ʃer-	2b	ʃer-
2A	-cá	2c/	-cá	2e	-cá	2a	-cá
2D/	na-	2d	na-	2f	na-	2a	na-
=11-	=11-	=11-	=11-	=11-	=11-	=11-	=11-
2E	-wię-	2B	-wię-	2e	-wię-	2g/	-wię-
2AA	-céy	2c/	-céy	2e	-céy	2a	-céy
2E	do-	2.c/	do-	2e	do-	4e	do-
.	.	.	.	.	.	4f	.
2C	-dá-	.	.	2e	-dá-	4g	-dá-
.	.	4B	-dá-	.	.	4e	.
=12-	=12-	=12-	=12-	=12-	=12-	=12-	=12-
2F	-ią	2A	-ią	4c	-ią	4f	-ią
.	.	.	.	4B	.	4g	.
2F	.	2A	ʃo-	4c/	ʃo-	4a	ʃo-
.	.	.	.	4d\	.	4b	.
2E	ʃo-	2G	-(bie),	4e	-(bie),	2cc	-bie,
.	.	.	.	4f	.	.	.
2E	-bie,	2G	Já-	2g	Já-	2b	Já-
=13-	=13-	=13-	=13-	=13-	=13-	=13-	=13-
2D/	Já-	4A	-ťo-	2f	-ťo-	2dd	-ťo-
.	.	4B	.	.	.	.	.
1A	-ťo-	4c/	-bych	2.e	-bych	2cc	-bych
.	.	4d	.	.	.	.	.
.	.	2e	.	.	.	1b	iá
.	.	.	.	4f	.	.	.
2G	-bych	2B	ia	4g	ia	.	.
.	.	.	.	4e	.	.	.
=14-	=14-	=14-	=14-	=14-	=14-	=14-	=14l
!	!	!	!LO:"z z ."	!	!LO:"z z ."	!	!LO:"z z ."
2F	ia	4c	iuӡ	2f	iuӡ	2a	iuӡ
.	.	4A	.	.	.	.	.
!	!LO:"z z ."	!	!	!	!	!	!
2E	iuӡ	4c/	prá-	2g	prá-	2g/	prá-
.	.	4d\	.	.	.	.	.
2C	prá-	2e	-wie	2g	-wie	2cc	-wie
2D/	-wie	2.d	zwąt-	2.f	zwąt-	2.b	zwąt-
=15-	=15-	=15-	=15-	=15-	=15-	=15-	=15-
2F	zwąt-	.	.	.	.	.	.
.	.	4c	-pił	4e	-pił	4a	-pił
2F	-pił	4c	o	2d	o	4a	o
.	.	8BL	.	.	.	8gL	.
.	.	8AJ	.	.	.	8fJ	.
1E	o	4B	.	2.e	To-	4g	To-
.	.	4c	.	.	.	2a	.
.	.	2B	To-	.	.	.	.
.	.	.	.	4d	.	4g	.
=16-	=16-	=16-	=16-	=16-	=16-	=16-	=16-
0AA;ll	To-	0A;l	-bie.	0c#X;ll	-bie.	0a;l	-bie.
==	==	==	==	==	==	==	==
*-	*-	*-	*-	*-	*-	*-	*-
!!!RDF**kern: l = terminal long
!!!system-decoration: s1,s2,s3,s4
!!!ENC:Anna Matuszewska
!!!END:2020-02-02
!!!URL-scan: https://polona.pl/item/melodiae-na-psalterz-polski,Nzk3MTM4ODQ/21 Scan on Polona
!!!IIIF: https://polona.pl/iiif/item/Nzk3MTM4ODQ/manifest.json
